X:1
T:String Quartet no. 5 Movement 2
T:String Quartet no. 5 Movement 2
T:Dvorak
C:Dvorak
%%score 1 2 3 4
L:1/8
Q:3/8=37
M:6/8
K:Ab
V:1 treble nm="Violin" snm="Vln."
V:2 treble nm="Violin" snm="Vln."
V:3 alto nm="Viola" snm="Vla."
V:4 bass nm="Violoncello" snm="Vc."
V:1
!p! !tenuto!c3 !tenuto!c3 | !tenuto!d>!tenuto!c!tenuto!d (e2 c) | %2
 !tenuto!A3 !tenuto!B>!tenuto!A!tenuto!B | !tenuto!c3 !tenuto!c3 | !tenuto!c3 !tenuto!c3 | %5
!<(! d>cd (f2 c)!<)! | !tenuto!d3!>(! __B>_cd!>)! | !tenuto!A3 !tenuto!A3 | !tenuto!A3 z z2 | %9
!pp! !tenuto!A3 !>!__B3 |!>(! !tenuto!A3 z z2!>)! |!f! !>!D3 !>!D3 | D3 z z!p! (.d/.e/) | %13
 (!>!f/d/c/d/B) e3 | (!>!e/B/A/B/G)"_cresc." A2 (c/e/) | (e/d/c/d/F) (c/"_dim."B/=A/B/F) | %16
 (B/A/G/A/C)!pp! [CE]2 (.c/.d/) |!pp!!<(! !tenuto!e3 !tenuto!e3!<)! | e>=de (_g2 f) | %19
 !tenuto!e3 !tenuto!e3 |!>(! !tenuto!e3- e/"_dim.".A/.B/.c/.d/.e/!>)! | %21
!<(! !tenuto!f3 !tenuto!f3!<)! | g>fg (!>!a2 g) |"_dim." f3 e2 c | (e3- e2 d) | %25
!ppp! !tenuto!c3 !tenuto!c3 | d>cd (e2 c) | A3 B>AB | c3- c2 (.c/>.c/) | %29
 !tenuto!c3"_cresc." !tenuto!c3 | Pd3/2cd/ (!>!f2 e) |!>(! Pd3/2cd/!pp! (!>!f2 e)!>)! | %32
 (f2!pp! e) (e2 d) | (d2 _c) (c2 B) |"_cresc." A6 |!f!!<(! !^!a3 (_f2- f/>.d/)!<)! | %36
!f! =e3- e2- e/>^c/ | !>!=e3- e2- e/>^c/ |"_dim." !>![G_e]3- [Ge]2- [Ge]/>B/ | %39
 [G_e]3- [Ge]2- [Ge]/>B/ |!p! !tenuto!e z z4 | (B/G/E/G/!>(!B/G/) (d/B/f/d/b/g/)!>)! | %42
!pp! !tenuto!e'3 !tenuto!e'3 |"_cresc." (f'>e'f') (g'2 f') | _e'6- |!>(! e'3- e'2 z!>)! | %46
!p! !tenuto!e3 !tenuto!e3 | (e>de)!pp!!<(!{/a} (_g2 _f)!<)! |!>(! e6-!>)! | e2 z4 | %50
 z!p!!<(! (!tenuto!.e z z !tenuto!.e) z!<)! |!p! z!<(! (.E.F .^F.G.A)!<)! | (.=A.B.c .d.=d.e) | %53
!f! !tenuto!e3 !tenuto!e3 | (f>ef) (g2 e) | !tenuto!c3!>(! (d>cd)!>)! | %56
"_dim." !tenuto!e3 !tenuto!e3 |!p!"_cresc." !tenuto!a3 !tenuto!a3 | (b>ab) (_c'2 d') | %59
 e'3 (e'2- e'/f'/) |!f! !>!_g'3 (e'>_c'e') | !tenuto!d'3"_dim." !tenuto!d'3 |!p! !tenuto!d' z z4 | %63
 z6 | z6 |!p!"_dolce"!<(! e3 (=d/e/f/e/d/e/)!<)! | f2 z4 | z4 z z |!f! !>!E2- E/>F/ _G3- | G z z4 | %70
 z6 |"^pizz."!f! _G_c__e Gce |!>(! _GBd FA_c!>)! |"^arco"!pp!{/_G} d6 | z6 |!p!"_cresc." _g6- | %76
 g3- (g/!p!d/_c/d/B) | B2 (_G/_g/) (g/e/d/e/_c) | _c3!>(! (e/d/=c/d/_F)!>)! | %79
!<(! (EA_c) (B/A/G/A/_F/D/)!<)! |!f!!<(! (_C2 B, D2) z!<)! |!p! _g3 (f/g/a/g/f/g/) | d3- d z z | %83
 d3"_cresc." (c/d/e/d/c/d/) | e3- e z z | e3 (=d/e/f/e/d/e/) | (a3 g2) z | g3 (a/g/^f/g/a/g/) | %88
 (c'3 b2) z | b3 (=a/b/c'/b/a/b/) |!ff! !>!f'3 (e'/=d'/f'/e'/d'/e'/) | %91
 !>!f'3 (e'/=d'/f'/e'/d'/e'/) | (!>!f'2 e'/=d'/) !trill(!!>!Te'3 | %93
!<(! !trill(!!>!Te'6({=d'e')}!<)! |!f! !>!a'3!<(! (g'/a'/b'/a'/g'/a'/)!<)! | d'3- d' z2 | %96
 e'3!<(! (=d'/e'/f'/e'/d'/e'/)!<)! | a3- a z2 | a3!<(! (g/a/b/a/g/a/)!<)! | %99
"_dim." _f'3- f'(!tenuto!e'!tenuto!d') | %100
 (!tenuto!c'!tenuto!b!tenuto!a) (!tenuto!g!tenuto!a!tenuto!b) |!pp! (e/c/B/c/A) (d/B/A/B/G) | %102
 !tenuto![G,_F] z z !tenuto![G,F] z2 | z6 |!pp! (E/_F/E) z (E/F/E) z | %105
 (=E/F/E)(E/F/ G)"_cresc."(G/A/G) | (B/c/B)(d/e/ d)(=e/f/e) | %107
 (g/a/g/a/b/=a/)"_dim." (b/=b/c'/b/c'/b/) |!p! !tenuto!c'3 !tenuto!c'3 | d'>c'd' (e'2 c') | %110
 a3!<(! b>ab!<)! | !tenuto!c'3- c'2 (.c'/>.c'/) |!f! !tenuto!c'3 !tenuto!c'3 | (d'>c'd') (f'2 c') | %114
 d'3!>(! (!tenuto!__b>!tenuto!_c'!tenuto!d')!>)! |"_dim." !tenuto!a3 !tenuto!a3 | %116
!pp! !tenuto!a3 !>!__b3 |!>(! !tenuto!a3 z z2!>)! |!f! !tenuto!D3 !>!D3 | %119
 !tenuto!D3 z z!p! (.d/.e/) | (!>!f/d/c/d/B) G2 (B/e/) | (!>!e/B/A/B/G)"_cresc." A2 (c/e/) | %122
 (e/d/c/d/F) (c/"_dim."B/=A/B/E) |!mf! (B/A/G/A/C) [CE]2 (.f/.g/) | %124
"_cresc." (b/a/g/a/c) (f/e/=d/e/=A) | ([FB]3"_dim." [DF]3) | (A/G/^F/G/B,)!p! (=F/E/D/E/G,) | %127
 !^!G,2 z z2 z | z2 z z z!pp! (E | e3) !tenuto!e3 | P_f>ef (_g2 e) | _c3 Pd>cd | %132
 !tenuto!e3 !tenuto!e3 | !tenuto!e3"_cresc." !tenuto!e3 | Pf>ef!f! (=g2 e) | c3!>(! Pd>cd!>)! | %136
!p! e3!>(! (.e>.e.e)!>)! |!p! !tenuto!A3 !tenuto!G3 |"_dim." A6 | A3 (_G2 __B) | %140
!p! F3!>(! E>F_G!>)! |!pp! F3 (!tenuto!E>.F._G) | !tenuto!F3 (!tenuto!E>.F._G) | %143
 !tenuto!F3!f! (FGA) | !>!E3 !>!E3 | !>!E3!p! !tenuto!e3 | !tenuto!e3"_dim." !tenuto!e3 | %147
!p!!>(! !tenuto!e6-!>)! | e6 | !tenuto!e3!pp! !tenuto!a3 | !tenuto!!fermata!a6 |] %151
V:2
!p! !tenuto!A3 !tenuto!G3 | !tenuto!A6 | !tenuto!F6 | !tenuto!A3 !tenuto!G>!tenuto!A!tenuto!B | %4
 !tenuto!A3 !tenuto!G3 |!<(! !tenuto!A6!<)! | !tenuto!A3!>(! (_G2 __B)!>)! | !tenuto!F3 E>F_G | %8
 !tenuto!F3 z z2 |!pp! !tenuto!F3 !>!_G3 |!>(! (_G/F/E/F/D) z z2!>)! |!f! !>!A,3 !>!B,3 | %12
 A,3 z z2 | z2 z!p! (e/B/A/B/G) | G2 (E/e/)"_cresc." (e/c/B/c/A) | A3"_dim." [DG]3 | [CE]6 | %17
!pp!!<(! c3 B3!<)! | c3 d3 | !tenuto!c3 B>cd |!>(! c3- c z2!>)! |!<(! !tenuto!c3 !tenuto!=d3-!<)! | %22
 d3 !>!f3 |"_dim." (!tenuto!c6- | c3 B3) |!ppp! !tenuto!A3 !tenuto!G3 | A6 | !tenuto!F6- | %28
 F3 (G>AB) | !tenuto!A3"_cresc." !tenuto!G3 | !tenuto!A6 |!>(! (A3-!pp! A3-!>)! | A6-) | %33
 A3 !tenuto!G3 |"_cresc." !//![A,_F]6 |!f!!<(! !//!!>![^G,=E]6!<)! | %36
!f! (.[^F^A].[FA].[FA]) (^c/A/^G/A/F) | (.[^F^A].[FA].[FA]) (^c/A/^G/A/F) | %38
 z2 z"_dim." (_B/=G/=F/G/E) | z2 z (B/G/F/G/E) |!p! !tenuto!G z z z (G/E/B,/E/) | z6 | %42
!pp! (.[Bg].[Bg].[Bg])"_cresc." (.[Bg].[Bg].[Bg]) | (.[Bg].[Bg].[Bg]) (.[_ca].[ca].[ca]) | %44
 (.[Bg].[Bg].[Bg]) (.[Bg].[Bg].[Bg]) |!>(! [eg]3- [eg]2 z!>)! | %46
!p! (.[B,G].[B,G].[B,G]) (.[B,G].[B,G].[B,G]) | %47
 (.[B,G].[B,G].[B,G])!pp!!<(! (.[A,_G].[A,G].[A,G])!<)! | %48
!>(! (.[B,G].[B,G].[B,G]) (.[B,G].[B,G].[B,G])!>)! | !tenuto![CG]2 z4 | %50
 z!p!!<(! (!tenuto!.B z z !tenuto!.B) z!<)! |!p! z!<(! (.E.E .E.E.E)!<)! | %52
 (.[G,E].[G,E].E .[G,E].[A,F].[B,G]) |!f! (B/A/G/A/E) z z .[GB] | (d/c/A/c/F) z z .[Gc] | %55
 (B/A/G/A/C)!>(! ._F z .[A,F]!>)! |"_dim." (B/A/G/A/E/A/ B/)(E/B/c/d/B/) | %57
!p! (d/c/A/c/E)"_cresc." E z _c | (_f/d/B/d/_G) G z G | (d/B/G/B/E) _c z _c' | %60
!f! (b/_g/d/e/B/d/) (_G/A/E/G/_C/E/) | [B,_G] z B/G/ [A,F] z _c/A/ |!p! !tenuto!._G z z4 | %63
!p!"_dolce" _g3 (f/g/a/g/f/g/) | _c2!<(! [_CA]/[CA]/ [CA]/[CA]/[CA]/[CA]/[CA]/[CA]/!<)! | z6 | z6 | %67
!<(! d'3 (c'/d'/e'/d'/c'/d'/)!<)! |!f! !>!_g3 z z2 | z6 |!f!!<(! b3 (=a/b/_c'/b/a/b/)!<)! | %71
 !>!__e'3- e'(!tenuto!d'!tenuto!_c') | %72
!>(! (!tenuto!b!tenuto!a!tenuto!_g) (!tenuto!f!tenuto!g!tenuto!a)!>)! | %73
!pp! (d/B/A/B/_G) (_c/A/G/A/F) | z6 |!p!"_cresc." (!//-!_G3 D3) | (d/B/A/B/_G) z z2 | %77
 (_g/d/_c/d/B) (ec_G) | (_g/_f/e/f/A)!>(! B3!>)! |!<(! (d/_c/B/c/E) (_C=CD)!<)! | %80
!p! (!//-!_F3 _G3) | (!//-!_F3 _G3) | (!//-!_F3 _G3) | (!//-!_F3"_cresc." _G3) | (!//-!D3 E3) | %85
 (!//-!D3 E3) | (!//-!D3 E3) | (!//-!D3 E3) | (!//-!D3 E3) | (!//-!D3 E3) |!ff! (!//-!!>!D3 E3) | %91
 (!//-!D3 E3) | (!//-!D3 E3) |!<(! (!//-!D3 E3)!<)! |!f! [CE]/[CE][CE][CE]/- [CE]/[CE][CE][CE]/ | %95
 !>!F3 (=E/F/_G/F/E/F/) | [G,G]/[G,G][G,G][G,G]/- [G,G]/[G,G][G,G][G,G]/ | A3 (G/A/B/A/G/A/) | %98
 c/[CE]!<(![CE][CE]/- [CE]/[CE][CE][CE]/!<)! | %99
"_dim." [A,_F]/[A,F][A,F][A,F]/- [A,F]/[A,F][A,F][A,F]/ | (e/c/B/c/A) (d/B/A/B/G) | %101
!p! (!tenuto!E!tenuto!D!tenuto!C) (!tenuto!B,!tenuto!C!tenuto!D) | z6 | z6 | %104
!pp! !tenuto!D z z !tenuto!D z z |"_cresc." B,6 | D3- D B2- | B2 (F"_dim." A3) | %108
!p! a3 (g/e/c/e/G) | f3 (a/e/c/e/A) | d3!<(! (f/d/B/d/F)!<)! | A2 A/F/ G/=E/G/A/B/G/ | %112
!f! (a/f/c/f/A) (G2 c/e/) | (!>!f/d/A/d/F) !tenuto![A,_G]3 | (!>!a/f/d/f/A) !tenuto!d3 | %115
"_dim." (_g/f/e/f/d) (f/e/=d/e/c) |!pp! !tenuto!f3 !>!_g3 |!>(! (_g/f/e/f/d) z z2!>)! | %118
!f! !tenuto!A,3 !>!B,3 | !tenuto!A,3 z2 z | z2 z!p! (!>!e/B/A/B/G) | %121
 G2 (E/e/)"_cresc." (e/c/B/c/A) | (A3 [DG]3) |!mf! [CE]3 z2 z | z2 z z2"_cresc." (.=B/.c/) | %125
 (e/d/c/d/F) (c/B/=A/B/F) | (e3!p! B3) | !^!d2 z4 |!p! !tenuto![B,G] z z4 | %129
!pp! !tenuto!_c3 !tenuto!B3 | !tenuto!_c6 | !tenuto!A3 !tenuto!A3 | !tenuto!_c3 B>cd | %133
 (c3"_cresc." B3) | !tenuto!c3-!f! c3 | !tenuto!A3!>(! !tenuto!A3!>)! |!p! c3!>(! B>cd!>)! | %137
!p! !tenuto!A3 !tenuto!G3 |"_dim." !tenuto!F3 !>!_G3 | !tenuto!F3 (D2 _G) |!p! D3!>(! C>DE!>)! | %141
!pp! D3 (!tenuto!C>.D.E) | !tenuto!D3 (!tenuto!C>.D.E) | !tenuto!D3!f! (DEF) | !>!C3 !>!B,>CD | %145
 !>!C3!p! B>cd | !tenuto!c3"_dim." B>cd |!p!!>(! !tenuto!c6-!>)! | c6 | !tenuto!c3!pp! !tenuto!c3 | %150
 !tenuto!!fermata!c6 |] %151
V:3
 z6 |!p! (F3 E3) | !tenuto!D6 | !tenuto!F3 !tenuto!=E>!tenuto!F!tenuto!G | (F3 E3) | %5
!<(! (F3 _G3)!<)! | !tenuto!F3!>(! (D2 _G)!>)! | !tenuto!D3 C>DE | !tenuto!D3 z z2 | %9
!pp! !tenuto!D3 !>!E3 |!>(! !tenuto!D2"_cresc." (F,/_G,/ A,/F,/E,/F,/D,)!>)! | %11
!f! !>!F,3 (!>!_G,3- | G,/F,/E,/F,/D,) z z2 |"^pizz."!p! D,F,B, E,G,B, | E,G,B,"_cresc." E,A,C | %15
 F,B,D"_dim." E,G,D | E,A,C z z2 |"^arco."!pp!!<(! (A3 _G3)!<)! | (=A3 B3) | !tenuto!A3 G>AB | %20
!>(! A3- A z2!>)! |!<(! !tenuto!A3 !tenuto!=B3-!<)! | B3 !>!c3 |"_dim." !tenuto!A6 | %24
 !tenuto!G3- G3 |!ppp! (F3 E3) | (F3 E3) | (!tenuto!D6 | A3) (=E>FG) | %29
 !tenuto!F3"_cresc." !tenuto!E3 | !tenuto!F3 !>!_G3 |!>(! !tenuto!F3!pp! _G3-!>)! | G3!pp! (F3- | %33
 F3 D3) |"_cresc." !//!_C6 |!f!!<(! !//!!>!^B,3 !//!^C3!<)! | %36
!f! (^C/^A,/^G,/A,/^F,) (.[F,A,].[F,A,].[F,A,]) | (^C/^A,/^G,/A,/^F,) (.[F,A,].[F,A,].[F,A,]) | %38
"_dim." (.[_E,_D].[E,D].[E,D]) (.[E,D].[E,D].[E,D]) | (.[E,D].[E,D].[E,D]) (.[E,D].[E,D].[E,D]) | %40
!p! [E,D] z (D/B,/ G,/B,/) z z | z6 |!pp! (.[Ed].[Ed].[Ed])"_cresc." (.[Ed].[Ed].[Ed]) | %43
 (.[Ed].[Ed].[Ed]) (.[Ee].[Ee].[Ee]) | (.[Ed].[Ed].[Ed]) (.[Ed].[Ed].[Ed]) | %45
!>(! [Gc]3- [Gc]2 z!>)! |!p! (.[E,D].[E,D].[E,D]) (.[E,D].[E,D].[E,D]) | %47
 (.[E,D].[E,D].[E,D])!pp! (.[E,C].[E,C].[E,C]) | (.[E,D].[E,D].[E,D]) (.[E,D].[E,D].[E,D]) | %49
 [E,C]2 z z z2 | z!p!!<(! (!tenuto!.G z z !tenuto!.G) z!<)! | %51
 z!p!!<(! (.[E,D].[E,D] .[E,D].[E,D].[E,D])!<)! | (.[E,D].[E,D].[E,D] .[E,D].[E,_C].[E,D]) | %53
!f! !tenuto![E,C] z z (C/B,/=A,/B,/E,) | .A, z .A, (D/C/G,/C/E,) | %55
 .E, z .[E,A,]!>(! (B,/A,/_F,/A,/D,)!>)! |"_dim." .C, z (C/E/ G/)(E/G/A/B/G/) | %57
!p! .E z .C"_cresc." (D/_C/A,/C/E,) | .D, z ._F (E/_C/_G,/C/E,) | .G, z .E (A/E/_C/E/A,) | %60
!f! .D, z ._G, .G, z ._C |"_dim." (.[D,D] z .[D,D]) (.[D,D] z .[D,D]) |!p!!<(! !//![B,D]6!<)! | %63
!>(! !//![B,D]6!>)! |!<(! !//![A,E]6!<)! | !//![_CE]6 |"_cresc." !//![DF]3 !//![B,F]3 | %67
 [B,F]/[DF]/[DF]/[DF]/[DF]/[DF]/ !//![DF]3 | %68
!f! !>![E,B,_G]/[_G,B,]/[G,B,]/[G,B,]/[G,B,]/[G,B,]/ !//![G,B,]3 |!<(! !//![_G,B,]6!<)! | %70
!<(! !//![D,D]6!<)! | !>![_G,_C]3 [C__E]3 |!>(! (D/B,/A,/B,/_G,) (_C/A,/G,/A,/F,)!>)! | %73
!pp! (!tenuto!B,!tenuto!A,!tenuto!_G,) (!tenuto!F,!tenuto!G,!tenuto!A,) | %74
 z2 z!>(! (_C/A,/_G,/A,/F,)!>)! |!p!"_cresc." (!//-!B,3 _G,3) | (!//-!B,3 _G,3) | %77
 (B,/_G,/B,/G,/B,/G,/) (_C/G,/C/G,/E,/G,/) | (A,/_C/A,/C/_F,/A,/)!>(! (D,/_F,/D,/F,/D,/F,/)!>)! | %79
!<(! (E,/A,/E,/A,/E,/A,/) (_F,/A,/F,/A,/F,/A,/)!<)! |!p! (!//-!D3 _G,3) | (!//-!D3 B,3) | %82
 (!//-!D3 B,3) | (!//-!D3"_cresc." B,3) | (!//-!B,3 E,3) | (!//-!B,3 E,3) | (!//-!B,3 E,3) | %87
 (!//-!B,3 E,3) | (!//-!B,3 E,3) | (!//-!B,3 E,3) |!ff! (!//-!B,3 E,3) | (!//-!B,3 E,3) | %92
 (!//-!B,3 E,3) |!<(! (!//-!B,3 E,3)!<)! |!f! A,/A,A,A,/- A,/A,A,A,/ | %95
 [B,D]/[B,D][B,D][B,D]/- [B,D]/[B,D][B,D][B,D]/ | [CE]/[CE][CE][CE]/- [CE]/[CE][CE][CE]/ | %97
 [CF]/[CF][CF][CF]/- [CF]/[CF][CF][CF]/ | [CE]/A,!<(!A,A,/- A,/A,A,A,/!<)! | %99
"_dim." B,/B,B,B,/- B,/B,B,B,/ | [CE]/[CE][CE]([CE-]/ [DE]/)[DE][DE][DE]/ | %101
!p! (!tenuto!C!tenuto!B,!tenuto!A,) (!tenuto!G,!tenuto!A,!tenuto!B,) | %102
 (D/B,/A,/B,/G,) (D/B,/A,/B,/G,) |!pp! (D!>(!B,A, B,G,) z!>)! | !tenuto!B, z z !tenuto!B, z z | %105
 !tenuto!C,(C,/D,/C,) (C,/D,/"_cresc."C,)(C,/D,/) | G,3- G, G2 | =E2 F"_dim." F,3 | %108
!p! (A/F/C/F/A,) C3 | (A/F/D/F/A,) C3 | (F/D/A,/D/F,)!<(! (B,2 F,)!<)! | %111
 (F/C/A,/C/F) (=E/C/E/F/G/E/) |!f! !tenuto!F3 (!>!G/E/C/E/G,) | A,3 (A,/E,/D,/E,/C,) | %114
 !tenuto![F,A,]3 (!>!__B/_G/D/G/__B,) |"_dim." (d2 F) (c2 _G) |!pp! !tenuto!d3 !>!e3 | %117
!>(! (!tenuto!e d)"_cresc." (F,/_G,/ A,/F,/E,/F,/D,)!>)! |!f! !tenuto!F,3 (!>!_G,3- | %119
 G,/F,/E,/F,/D,) z2 z |!p!"^pizz." D,F,B, E,G,B, | E,G,B,"_cresc." E,A,C | F,B,D E,G,E | %123
!mf! C,E,A, z2 z |"_cresc." E,A,C C,E,_G, | D,F,B,"_dim." F,B,D |"^arco" ([E,D]3!p! [D,G,]3) | %127
 !^![E,B,]2 z z2 z |!p! !tenuto![E,D] z z4 |!pp! !tenuto!A3 !tenuto!E3 | !tenuto!A3 !tenuto!_G3 | %131
 !tenuto!E3 !tenuto!_F3 | !tenuto!A3 G>AB | A3 z z2 |"_cresc." A3!f! G3 | %135
 !tenuto!E3!>(! !tenuto!_F3!>)! |!p! A3!>(! G>AB!>)! |!p! !tenuto!c3 !tenuto!c3 | %138
[K:treble] Pd>cd (!>!f2 e) | d3 __B>_cd |!p! A3!>(! A3!>)! |[K:alto]!pp! A3 (!tenuto!A>.A.A) | %142
 A3 (!tenuto!A>.A.A) | A3 z z2 |!f! !>![E,A,]3 !>!G,>A,B, | !>!A,3!p! G>AB | %146
 !tenuto!A3"_dim." G>AB |!p!!>(! A6-!>)! | A6 | !tenuto!A3!pp! !tenuto!E3 | !tenuto!!fermata!E6 |] %151
V:4
"^pizz."!p! F,CA, E,CG, | D,DA, C,CA, | D,A,F, D,B,F, | C,CA, C,C z | F,,A,F, E,,G,E, | %5
!<(! D,,A,F, C,,A,E,!<)! | D,,A,F,!>(! _G,,__B,_G,!>)! | A,,DA, A,,CA, | D,,A,F, z z2 | %9
!pp!"^arco" !tenuto!D,,3 !>!C,,3 |!>(! D,,3 z z2!>)! |!f! !>!D,,3 !>!_G,,3 | %12
 !tenuto!D,,2"_dim." (F,,/_G,,/ A,,/F,,/E,,/F,,/D,,) |!p! (B,,3 D,3) | (C,3"_cresc." F,,3) | %15
 (B,,3"_dim." E,,3) | A,,2 (G,/A,/) (B,/A,/G,/A,/A,,) |!pp!"^pizz."!<(! A,,CA, _G,,B,_G,!<)! | %18
 F,,CA, B,,DB, | C,,CA, E,,B,E, |!>(! A,,EC A, z2!>)! |!<(! A,,CA, A,,=D=B,!<)! | G,,=D=B, F,,FC | %23
"_dim." !>!C,,CA, E,,A,E, | E,,CG, E,,B,E, |!ppp! F,CA, E,CG, | D,A,F, C,CA, | D,A,F, D,B,F, | %28
 C,CA, C,C z | F,,A,F,"_cresc." E,,G,E, | D,,A,F, C,,A,E, |!>(! D,,A,F,!pp! C,CA,!>)! | %32
 C,A, z D,A, z | =D,A, z E,B, z |"^arco.""_cresc." !//!_F,6 |!f!!<(! !//!!>!=E,6!<)! | %36
!f! !>!^F,(.^F,,.F,,) (.F,,.F,,.F,,) | !>!^F,(.^F,,.F,,) (.F,,.F,,.F,,) | %38
"_dim." (_B,,/=G,,/=F,,/G,,/_E,,) z z2 | (B,,/G,,/F,,/G,,/E,,) z z2 |!p! B,/G,/E,/G,/ z4 | z6 | %42
 z6 | z6 |!mf! !tenuto!B,3 !tenuto!B,3 | C>B,B,!>(!{/E} D2 C!>)! |!p! !tenuto!B,2 z4 | z6 | %48
 B,,3!<(! B,,3!<)! |"_cresc." C,>B,,C,{/E,} (D,2 C,) |{/E,} (D,2 C,){/E,} (D,2 C,) | %51
!p!{/E,} (D,C,B,,!<(! A,,G,,F,,!<)! | E,,)(B,,A,, G,,F,,E,,) |!f! (A,,C,E,) (G,,B,,E,) | %54
 (F,,A,,C,) (E,,G,,C,) | (A,,C,E,)!>(! (D,,A,,D,)!>)! |"_dim." (E,,C,E,) (E,,B,,E,) | %57
!p! .A,,(CA,)"_cresc." .A,,(_CA,) | ._G,,(D_G,) ._C,(E_C) | .B,,(DE,) .A,,(_CE,) | %60
!f! ._G,,(B,D,) ._C,(E_G,) |"_dim." (D/B,/A,/B,/_G,) (_C/A,/G,/A,/F,) | %62
!p!!<(! _G,2- G,/>A,/ B,3-!<)! |!>(! B, z z4!>)! | _C2-!<(! C/>D/ E3-!<)! | E z z4 | %66
"_cresc." B,2- B,/>C/ D3- | D/B,/B,/B,/B,/B,/ !//!B,3 |!f! !>!B,/E,/E,/E,/E,/E,/ !//!E,3 | %69
!f! E,,3!<(! (=D,,/E,,/F,,/E,,/D,,/E,,/)!<)! |!<(! !//!_G,,6!<)! | !//!_C,6 | %72
!>(! (.D, z .B,)"^pizz." D,, z D,!>)! |!pp! D,, z B,, D,, z D, | z6 | %75
"^arco"!p!"_cresc." (D,/B,,/A,,/B,,/_G,,) (D,/B,,/A,,/B,,/G,,) | _F,,6 | (E,,3 A,,3) | %78
 (D,,3!>(! _G,,3)!>)! |!<(! (A,,3 _F,,3)!<)! |!p! _G,,3 (_C,/B,,/A,,/B,,/G,,) | z6 | %82
 (_C,/B,,/A,,/B,,/_G,,)!<(! (E,/D,/C,/D,/B,,)!<)! | !>!A,3 (_G,2 _F,) | E,3 (A,/G,/F,/G,/E,) | z6 | %86
"_cresc." B,,3 (=A,,/B,,/C,/B,,/A,,/B,,/) | (!>!F,3 E,2) z | E,3 (=D,/E,/F,/E,/D,/E,/) | %89
 (!>!A,3 G,2) z |!ff! (!>!A,/G,/B,/A,/G,/A,/) G,2 z | (!>!A,/G,/B,/A,/G,/A,/) G,2 z | %92
 (!>!A,/G,/B,/A,/G,/A,/) (!>!G,/F,/A,/G,/F,/G,/) | %93
!<(! (!>!F,/E,/G,/F,/E,/D,/) (!>!F,/E,/D,/C,/D,/B,,/)!<)! |!f! (A,,/C,/E,/A,/C/E/) z z2 | %95
 (A,,/D,/F,/B,/D/F/) z z2 | (C,,/E,,/G,,/C,/E,/G,/) z z2 | (F,,/A,,/C,/F,/A,/C/) z z2 | %98
 (A,,/C,/E,/A,/C/E/) z z2 |"_dim." (D,,/_F,,/A,,/D,/_F,/A,/) z z2 | %100
 (E,,/A,,/C,/E,/) z (E,,/G,,/B,,/E,/) z |!pp! E,,/E,,E,,E,,/- E,,/E,,E,,E,,/- | %102
 E,, z z !tenuto!E,, z z |!pp! (D,!>(!B,,A,, B,,G,,)(A,,/B,,/!>)! | %104
 G,,) z A,,/B,,/ G,, z A,,/B,,/ | G,,3- G,,"_cresc." =E,,2- | E,,3- E,, D,,2- | D,,3-"_dim." D,,3 | %108
!p!"^pizz." F,,A,F, E,,G,E, | D,,A,F, C,,A,E, | D,,F,D,!<(! D,,F,D,!<)! | C,,A,F, C,C z | %112
!f! F,,A,F, E,,G,E, | D,,F,D, C,,A,E, | D,,F,D, _G,,__B,_G, |"_dim." A,,DA, A,,CA, | %116
!pp!"^arco" !tenuto!D,,3 !>!C,,3 |!>(! !tenuto!D,,3 z z2!>)! |!f! !tenuto!D,3 !>!_G,,3 | %119
 !tenuto!D,,2 (F,,/_G,,/ A,,/F,,/E,,/F,,/D,,) |!p! (B,,3 D,3) | (C,3"_cresc." F,,3) | (B,,3 E,,3) | %123
!mf! A,,2!<(! (.A,/.=A,/) (B,/_A,/!>(!G,/A,/A,,)!<)!!>)! |"_cresc." C,3 A,,3- | %125
 A,,3-"_dim." A,,3- | A,,3-!p! A,,3 |[K:tenor] (!>!FE=D) (EG,C) |[K:bass]!p! (B,G,E,) (=D,_D,B,,) | %129
"^pizz."!pp! A,,_CA, _G,,B,_G, | _F,,A,_F, E,,_C_G, | A,,A,E, _F,,A,_F, | E,,A,E, E,,G,E, | %133
 A,,CA,"_cresc." G,,B,G, | F,,A,F,!f! E,,CG, | A,,A,E,!>(! D,,A,_F,!>)! | %136
!p! E,,A,E,!>(! E,,G,E,!>)! |!p! F,,A,F, E,,G,E, | D,,F,D, C,,C,A,, | D,,F,D, _G,,__B,_G, | %140
!p! A,,A,F,!>(! A,,CA,!>)! |!pp! D,,A,F, A,,CA, | D,,A,F, A,,CA, | D,, z z4 | %144
"^arco"!f! !>!E,,3 !>!E,,3 |"^pizz." A,,CA,!p! E,,B,E, | A,,CA,"_dim." E,,B,E, | %147
!p! A,,AF!>(! ECB,!>)! | A,F,E, D,C,B,, | A,,2 z!pp!"^arco" !tenuto!A,3 | !tenuto!!fermata!A,6 |] %151

